icons/loader-ring.svg

<svg xmlns="http://www.w3.org/2000/svg" width="96" height="96"><path d="M12 48c0 1.1-.4 2.1-1.2 2.8-.7.8-1.7 1.2-2.8 1.2-1.1 0-2.1-.4-2.8-1.2C4.4 50.1 4 49.1 4 48c0-11.7 4.6-22.9 12.9-31.1C25.1 8.6 36.3 4 48 4c11.7 0 22.9 4.6 31.1 12.9C87.4 25.1 92 36.3 92 48c0 11.7-4.6 22.9-12.9 31.1C70.9 87.4 59.7 92 48 92c-1.1 0-2.1-.4-2.8-1.2-.8-.7-1.2-1.7-1.2-2.8 0-1.1.4-2.1 1.2-2.8.7-.8 1.7-1.2 2.8-1.2 9.5 0 18.7-3.8 25.5-10.5C80.2 66.7 84 57.5 84 48s-3.8-18.7-10.5-25.5C66.7 15.8 57.5 12 48 12s-18.7 3.8-25.5 10.5C15.8 29.3 12 38.5 12 48z" fill="#454545"/></svg>

<?xml version="1.0" standalone="no"?><!-- Generator: Gravit.io --><svg xmlns="http://www.w3.org/2000/svg" xmlns:xlink="http://www.w3.org/1999/xlink" width="96" height="96"><path d=" M 12 48 C 12 49.1 11.6 50.1 10.8 50.8 C 10.1 51.6 9.1 52 8 52 C 6.9 52 5.9 51.6 5.2 50.8 C 4.4 50.1 4 49.1 4 48 C 4 36.3 8.6 25.1 16.9 16.9 C 25.1 8.6 36.3 4 48 4 C 59.7 4 70.9 8.6 79.1 16.9 C 87.4 25.1 92 36.3 92 48 C 92 59.7 87.4 70.9 79.1 79.1 C 70.9 87.4 59.7 92 48 92 C 46.9 92 45.9 91.6 45.2 90.8 C 44.4 90.1 44 89.1 44 88 C 44 86.9 44.4 85.9 45.2 85.2 C 45.9 84.4 46.9 84 48 84 C 57.5 84 66.7 80.2 73.5 73.5 C 80.2 66.7 84 57.5 84 48 C 84 38.5 80.2 29.3 73.5 22.5 C 66.7 15.8 57.5 12 48 12 C 38.5 12 29.3 15.8 22.5 22.5 C 15.8 29.3 12 38.5 12 48 Z " fill="#454545" stroke="none"/><mask id="_mask_RxV6NTLTcQMoh4hCELmd4bjIkeXV9T7n"><path d=" M 12 48 C 12 49.1 11.6 50.1 10.8 50.8 C 10.1 51.6 9.1 52 8 52 C 6.9 52 5.9 51.6 5.2 50.8 C 4.4 50.1 4 49.1 4 48 C 4 36.3 8.6 25.1 16.9 16.9 C 25.1 8.6 36.3 4 48 4 C 59.7 4 70.9 8.6 79.1 16.9 C 87.4 25.1 92 36.3 92 48 C 92 59.7 87.4 70.9 79.1 79.1 C 70.9 87.4 59.7 92 48 92 C 46.9 92 45.9 91.6 45.2 90.8 C 44.4 90.1 44 89.1 44 88 C 44 86.9 44.4 85.9 45.2 85.2 C 45.9 84.4 46.9 84 48 84 C 57.5 84 66.7 80.2 73.5 73.5 C 80.2 66.7 84 57.5 84 48 C 84 38.5 80.2 29.3 73.5 22.5 C 66.7 15.8 57.5 12 48 12 C 38.5 12 29.3 15.8 22.5 22.5 C 15.8 29.3 12 38.5 12 48 Z " fill="white" stroke="none"/></mask><path d=" M 12 48 C 12 49.1 11.6 50.1 10.8 50.8 C 10.1 51.6 9.1 52 8 52 C 6.9 52 5.9 51.6 5.2 50.8 C 4.4 50.1 4 49.1 4 48 C 4 36.3 8.6 25.1 16.9 16.9 C 25.1 8.6 36.3 4 48 4 C 59.7 4 70.9 8.6 79.1 16.9 C 87.4 25.1 92 36.3 92 48 C 92 59.7 87.4 70.9 79.1 79.1 C 70.9 87.4 59.7 92 48 92 C 46.9 92 45.9 91.6 45.2 90.8 C 44.4 90.1 44 89.1 44 88 C 44 86.9 44.4 85.9 45.2 85.2 C 45.9 84.4 46.9 84 48 84 C 57.5 84 66.7 80.2 73.5 73.5 C 80.2 66.7 84 57.5 84 48 C 84 38.5 80.2 29.3 73.5 22.5 C 66.7 15.8 57.5 12 48 12 C 38.5 12 29.3 15.8 22.5 22.5 C 15.8 29.3 12 38.5 12 48 Z " fill="none" stroke="none" stroke-width="16" mask="url(#_mask_RxV6NTLTcQMoh4hCELmd4bjIkeXV9T7n)"/></svg>
